X:71
T: "Dárom, madárom"
K: F
M: 2/4
L: 1/4
d g | g/e/ f | 
d g | g/e/ f | 
d>c | d/d/ d | 
G c | c/A/B | 
G c | c/A/B | 
G>F | G/G/G | 

